packages/svg/quartz-watch.svg

<svg width="1024" height="1024" fill="none" xmlns="http://www.w3.org/2000/svg"><path d="M512 768c72.661-2.005 132.992-27.008 180.992-75.008S765.994 584.661 768 512c-2.006-72.661-27.008-132.992-75.008-180.992S584.661 258.005 512 256c-72.662 2.005-132.992 27.008-180.992 75.008S258.005 439.339 256 512c2.005 72.661 27.008 132.992 75.008 180.992S439.338 765.995 512 768Zm0 64c-90.667-2.005-166.166-33.173-226.496-93.504C225.173 678.165 194.005 602.667 192 512c2.005-90.667 33.173-166.165 93.504-226.496C345.834 225.173 421.333 194.005 512 192c90.666 2.005 166.165 33.173 226.496 93.504C798.826 345.835 829.994 421.333 832 512c-2.006 90.667-33.174 166.165-93.504 226.496C678.165 798.827 602.666 829.995 512 832Zm96-576V128H416v128h-64V64h320v192h-64ZM416 768v128h192V768h64v192H352V768h64Zm96-384c-9.344 0-17.014-2.997-23.008-8.992C482.997 369.013 480 361.344 480 352s2.997-17.013 8.992-23.008C494.986 322.997 502.656 320 512 320s17.013 2.997 23.008 8.992C541.002 334.987 544 342.656 544 352s-2.998 17.013-8.992 23.008C529.013 381.003 521.344 384 512 384Zm0 320c-9.344 0-17.014-2.997-23.008-8.992C482.997 689.013 480 681.344 480 672s2.997-17.013 8.992-23.008C494.986 642.997 502.656 640 512 640s17.013 2.997 23.008 8.992C541.002 654.987 544 662.656 544 672s-2.998 17.013-8.992 23.008C529.013 701.003 521.344 704 512 704ZM384 512c0 9.344-2.998 17.013-8.992 23.008C369.013 541.003 361.344 544 352 544s-17.014-2.997-23.008-8.992C322.997 529.013 320 521.344 320 512s2.997-17.013 8.992-23.008C334.986 482.997 342.656 480 352 480s17.013 2.997 23.008 8.992C381.002 494.987 384 502.656 384 512Zm320 0c0 9.344-2.998 17.013-8.992 23.008C689.013 541.003 681.344 544 672 544s-17.014-2.997-23.008-8.992C642.997 529.013 640 521.344 640 512s2.997-17.013 8.992-23.008C654.986 482.997 662.656 480 672 480s17.013 2.997 23.008 8.992C701.002 494.987 704 502.656 704 512Zm-281.984-89.984c-9.344 8-19.84 10.496-31.488 7.488s-19.147-10.507-22.496-22.496c-3.35-11.989-.683-22.325 8-31.008 6.677-5.995 14.176-8.992 22.496-8.992 8.32 0 15.658 3.168 22.016 9.504 6.357 6.336 9.696 13.835 10.016 22.496.32 8.661-2.518 16.331-8.512 23.008h-.032ZM648 648c-8.662 8.661-18.998 11.328-31.008 8-12.011-3.328-19.51-10.827-22.496-22.496-2.987-11.669-.491-22.165 7.488-31.488 6.677-5.995 14.346-8.832 23.008-8.512 8.661.32 16.16 3.659 22.496 10.016 6.336 6.357 9.504 13.696 9.504 22.016 0 8.32-2.998 15.819-8.992 22.496V648Zm-225.984-45.984c8 9.344 10.496 19.84 7.488 31.488S418.997 652.651 407.008 656c-11.99 3.349-22.326.683-31.008-8-5.995-6.677-8.992-14.176-8.992-22.496 0-8.32 3.168-15.659 9.504-22.016 6.336-6.357 13.834-9.696 22.496-10.016 8.661-.32 16.33 2.517 23.008 8.512v.032ZM648 376c8 9.344 10.496 19.84 7.488 31.488s-10.347 18.987-22.016 22.016c-11.67 3.029-22.166.533-31.488-7.488-5.995-6.677-8.832-14.347-8.512-23.008.32-8.661 3.658-16.16 10.016-22.496 6.357-6.336 13.696-9.504 22.016-9.504 8.32 0 15.818 2.997 22.496 8.992Z" fill="#303133"/></svg>

<svg width="1024" height="1024" viewBox="0 0 1024 1024" fill="none" xmlns="http://www.w3.org/2000/svg">
<path d="M512 768C584.661 765.995 644.992 740.992 692.992 692.992C740.992 644.992 765.994 584.661 768 512C765.994 439.339 740.992 379.008 692.992 331.008C644.992 283.008 584.661 258.005 512 256C439.338 258.005 379.008 283.008 331.008 331.008C283.008 379.008 258.005 439.339 256 512C258.005 584.661 283.008 644.992 331.008 692.992C379.008 740.992 439.338 765.995 512 768ZM512 832C421.333 829.995 345.834 798.827 285.504 738.496C225.173 678.165 194.005 602.667 192 512C194.005 421.333 225.173 345.835 285.504 285.504C345.834 225.173 421.333 194.005 512 192C602.666 194.005 678.165 225.173 738.496 285.504C798.826 345.835 829.994 421.333 832 512C829.994 602.667 798.826 678.165 738.496 738.496C678.165 798.827 602.666 829.995 512 832ZM608 256V128H416V256H352V64H672V256H608ZM416 768V896H608V768H672V960H352V768H416ZM512 384C502.656 384 494.986 381.003 488.992 375.008C482.997 369.013 480 361.344 480 352C480 342.656 482.997 334.987 488.992 328.992C494.986 322.997 502.656 320 512 320C521.344 320 529.013 322.997 535.008 328.992C541.002 334.987 544 342.656 544 352C544 361.344 541.002 369.013 535.008 375.008C529.013 381.003 521.344 384 512 384ZM512 704C502.656 704 494.986 701.003 488.992 695.008C482.997 689.013 480 681.344 480 672C480 662.656 482.997 654.987 488.992 648.992C494.986 642.997 502.656 640 512 640C521.344 640 529.013 642.997 535.008 648.992C541.002 654.987 544 662.656 544 672C544 681.344 541.002 689.013 535.008 695.008C529.013 701.003 521.344 704 512 704ZM384 512C384 521.344 381.002 529.013 375.008 535.008C369.013 541.003 361.344 544 352 544C342.656 544 334.986 541.003 328.992 535.008C322.997 529.013 320 521.344 320 512C320 502.656 322.997 494.987 328.992 488.992C334.986 482.997 342.656 480 352 480C361.344 480 369.013 482.997 375.008 488.992C381.002 494.987 384 502.656 384 512ZM704 512C704 521.344 701.002 529.013 695.008 535.008C689.013 541.003 681.344 544 672 544C662.656 544 654.986 541.003 648.992 535.008C642.997 529.013 640 521.344 640 512C640 502.656 642.997 494.987 648.992 488.992C654.986 482.997 662.656 480 672 480C681.344 480 689.013 482.997 695.008 488.992C701.002 494.987 704 502.656 704 512ZM422.016 422.016C412.672 430.016 402.176 432.512 390.528 429.504C378.88 426.496 371.381 418.997 368.032 407.008C364.682 395.019 367.349 384.683 376.032 376C382.709 370.005 390.208 367.008 398.528 367.008C406.848 367.008 414.186 370.176 420.544 376.512C426.901 382.848 430.24 390.347 430.56 399.008C430.88 407.669 428.042 415.339 422.048 422.016H422.016ZM648 648C639.338 656.661 629.002 659.328 616.992 656C604.981 652.672 597.482 645.173 594.496 633.504C591.509 621.835 594.005 611.339 601.984 602.016C608.661 596.021 616.33 593.184 624.992 593.504C633.653 593.824 641.152 597.163 647.488 603.52C653.824 609.877 656.992 617.216 656.992 625.536C656.992 633.856 653.994 641.355 648 648.032V648ZM422.016 602.016C430.016 611.36 432.512 621.856 429.504 633.504C426.496 645.152 418.997 652.651 407.008 656C395.018 659.349 384.682 656.683 376 648C370.005 641.323 367.008 633.824 367.008 625.504C367.008 617.184 370.176 609.845 376.512 603.488C382.848 597.131 390.346 593.792 399.008 593.472C407.669 593.152 415.338 595.989 422.016 601.984V602.016ZM648 376C656 385.344 658.496 395.84 655.488 407.488C652.48 419.136 645.141 426.475 633.472 429.504C621.802 432.533 611.306 430.037 601.984 422.016C595.989 415.339 593.152 407.669 593.472 399.008C593.792 390.347 597.13 382.848 603.488 376.512C609.845 370.176 617.184 367.008 625.504 367.008C633.824 367.008 641.322 370.005 648 376V376Z" fill="#303133"/>
</svg>
